X:1
T:Haddam, 666.88
T:Haddam, 666.88
T:Arranged by Lowell Mason, 1822
T:Public Domain Courtesy of the Cyber Hymnal™
C:Arranged by Lowell Mason, 1822
Z:Public Domain
Z:Courtesy of the Cyber Hymnal™
%%score ( 1 2 ) ( 3 4 )
L:1/8
M:4/4
K:C
V:1 treble 
V:2 treble 
V:3 bass 
V:4 bass 
V:1
 [CG]4 | [Cc]2 [EG]2 [FA]2 [DB]2 | [Ec]4 [CG]4 | [CA]2 [CG]2 [B,F]2 [CE]2 | [B,D]4 [DG]4 | %5
 [Gc]2 [EG]2 [FA]2 [FB]2 | [Ec]4 [CE]4 | [B,D]2 [EG]2 [EG]2 [D^F]2 | [DG]4 [CE]3 [DF] | %9
 [EG]4 [EG]3 [FA] | [EG]4 [CE]3 [DF] | [EG]2 [Ac]2 [GB]2 [FA]2 | [EG]4 [CE]3 [DF] | %13
 [EG]2 [ce]2 [Bd]2 [Ac]2 | [GB]2 [FA]2 [EG]2 [DF]2 | [CE]4 [B,D]4 | C4 |] %17
V:2
 x4 | x8 | x8 | x8 | x8 | x8 | x8 | x8 | x8 | x8 | x8 | x8 | x8 | x8 | x8 | x8 | C4 |] %17
V:3
 [C,E,]4 | [E,G,]2 [C,C]2 [F,C]2 G,2 | [C,G,]4 [E,G,]4 | F,2 [E,G,]2 [D,G,]2 [C,G,]2 | %4
 [G,,G,]4 [G,B,]4 | [E,C]2 [C,C]2 [F,C]2 G,2 | [C,G,]4 [C,G,]4 | G,2 [E,B,]2 [C,C]2 [D,A,]2 | %8
 [G,,B,]4 [C,G,]4 | [C,G,]4 [C,C]4 | [C,C]4 [C,G,]4 | [C,G,]4 [C,C]4 | [C,C]4 [C,C]4 | %13
 [C,C]4 [C,C]4 | [F,C]4 [F,,A,]4 | [G,,G,]4 [G,,F,]4 | [C,E,]4 |] %17
V:4
 x4 | x8 | x8 | F,2 x6 | x8 | x6 G,2 | x8 | x8 | x8 | x8 | x8 | x8 | x8 | x8 | x8 | x8 | x4 |] %17

